X: 27642
T: Moose In The Meadow, The
R: reel
M: 4/4
K: Amixolydian
EAA2 fAdf|edcA BcAF|EG,EG FDA=c|(3B^cd ef gfed|
cAA2 fAdf|edcA BcAF|G3A (3B^cd ed|1 cABc A2AF:|2 cABc Aef^g||
a3e fAaf|edcA BcAF|EG,EG FDA=c|(3B^cd ef gfed|
ceae fAaf|edcA BcAF|G3A (3B^cd ed|cABc Aef^g|
a3e fAaf|edcA BcAF|EG,EG FDA=c|(3B^cd ef =gAb^g|
a3e fecB|A=GFE DG,D=F|(3E^FG A=c BEed|^cABc A2AF||

